X:1
T:Telephone -- Hornpipe
R:hornpipe
B:Cole's 1000 Fiddle Tunes
M:2/4
L:1/16
K:D
((3uABc)|vd2d"4"e dAFA|d2dc defe|d2d"4"e dAFA|BAGF EABc|
d2d"4"e dAFA|d2dc defa|bagf gfed|cABc d2:|
|:(uba)|vgfed cABc|defg a2(gf)|\
"4"edcB "4"^AF^G"4"A|Bcde f2(=ga)|
.b("4"e^de) .a(dcd)|.g(c^Bc) .f(=B^AB)|\
abga fgef|d2f2d2:|
